swiss/communes/0932.svg

<?xml version="1.0" encoding="UTF-8" standalone="no"?>
<svg
   xmlns:dc="http://purl.org/dc/elements/1.1/"
   xmlns:cc="http://creativecommons.org/ns#"
   xmlns:rdf="http://www.w3.org/1999/02/22-rdf-syntax-ns#"
   xmlns:svg="http://www.w3.org/2000/svg"
   xmlns="http://www.w3.org/2000/svg"
   xmlns:xlink="http://www.w3.org/1999/xlink"
   xmlns:sodipodi="http://sodipodi.sourceforge.net/DTD/sodipodi-0.dtd"
   xmlns:inkscape="http://www.inkscape.org/namespaces/inkscape"
   height="763"
   width="603"
   version="1.0"
   id="svg20"
   sodipodi:version="0.32"
   inkscape:version="0.46"
   sodipodi:docname="Horrenbach-Buchen-coat of arms.svg"
   sodipodi:docbase="C:\Users\Camilo\Documents\Escudos de Suiza"
   inkscape:output_extension="org.inkscape.output.svg.inkscape">
  <metadata
     id="metadata31">
    <rdf:RDF>
      <cc:Work
         rdf:about="">
        <dc:format>image/svg+xml</dc:format>
        <dc:type
           rdf:resource="http://purl.org/dc/dcmitype/StillImage" />
        <dc:date>05-AUG-2009</dc:date>
        <dc:creator>
          <cc:Agent>
            <dc:title>Juan G (aliman5040)</dc:title>
          </cc:Agent>
        </dc:creator>
        <cc:license
           rdf:resource="http://creativecommons.org/licenses/GPL/2.0/" />
        <dc:coverage />
        <dc:description></dc:description>
        <dc:subject>
          <rdf:Bag />
        </dc:subject>
        <dc:language></dc:language>
        <dc:title>Wappen Gemeinde Horrenbach-Buchen</dc:title>
      </cc:Work>
      <cc:License
         rdf:about="http://creativecommons.org/licenses/GPL/2.0/">
        <cc:permits
           rdf:resource="http://web.resource.org/cc/Reproduction" />
        <cc:permits
           rdf:resource="http://web.resource.org/cc/Distribution" />
        <cc:requires
           rdf:resource="http://web.resource.org/cc/Notice" />
        <cc:permits
           rdf:resource="http://web.resource.org/cc/DerivativeWorks" />
        <cc:requires
           rdf:resource="http://web.resource.org/cc/ShareAlike" />
        <cc:requires
           rdf:resource="http://web.resource.org/cc/SourceCode" />
      </cc:License>
    </rdf:RDF>
  </metadata>
  <defs
     id="defs29">
    <inkscape:perspective
       sodipodi:type="inkscape:persp3d"
       inkscape:vp_x="0 : 381.5 : 1"
       inkscape:vp_y="0 : 1000 : 0"
       inkscape:vp_z="603 : 381.5 : 1"
       inkscape:persp3d-origin="301.5 : 254.33333 : 1"
       id="perspective5149" />
    <linearGradient
       id="linearGradient2893">
      <stop
         style="stop-color:#ffffff;stop-opacity:0.3137255;"
         offset="0"
         id="stop2895" />
      <stop
         id="stop2897"
         offset="0.19"
         style="stop-color:#ffffff;stop-opacity:0.25098041;" />
      <stop
         style="stop-color:#6b6b6b;stop-opacity:0.1254902;"
         offset="0.60000002"
         id="stop2901" />
      <stop
         style="stop-color:#000000;stop-opacity:0.1254902;"
         offset="1"
         id="stop2899" />
    </linearGradient>
    <radialGradient
       inkscape:collect="always"
       xlink:href="#linearGradient2893"
       id="radialGradient3236"
       gradientUnits="userSpaceOnUse"
       gradientTransform="matrix(1.215027,1.531577e-24,1.464684e-23,1.266667,-839.1924,-490.4894)"
       cx="858.04236"
       cy="579.93323"
       fx="858.04236"
       fy="579.93323"
       r="300" />
    <inkscape:perspective
       id="perspective5197"
       inkscape:persp3d-origin="372.04724 : 350.78739 : 1"
       inkscape:vp_z="744.09448 : 526.18109 : 1"
       inkscape:vp_y="0 : 1000 : 0"
       inkscape:vp_x="0 : 526.18109 : 1"
       sodipodi:type="inkscape:persp3d" />
    <inkscape:perspective
       id="perspective8046"
       inkscape:persp3d-origin="372.04724 : 350.78739 : 1"
       inkscape:vp_z="744.09448 : 526.18109 : 1"
       inkscape:vp_y="0 : 1000 : 0"
       inkscape:vp_x="0 : 526.18109 : 1"
       sodipodi:type="inkscape:persp3d" />
    <inkscape:perspective
       id="perspective3263"
       inkscape:persp3d-origin="372.04724 : 350.78739 : 1"
       inkscape:vp_z="744.09448 : 526.18109 : 1"
       inkscape:vp_y="0 : 1000 : 0"
       inkscape:vp_x="0 : 526.18109 : 1"
       sodipodi:type="inkscape:persp3d" />
    <inkscape:perspective
       id="perspective4938"
       inkscape:persp3d-origin="372.04724 : 350.78739 : 1"
       inkscape:vp_z="744.09448 : 526.18109 : 1"
       inkscape:vp_y="0 : 1000 : 0"
       inkscape:vp_x="0 : 526.18109 : 1"
       sodipodi:type="inkscape:persp3d" />
    <inkscape:perspective
       id="perspective6026"
       inkscape:persp3d-origin="372.04724 : 350.78739 : 1"
       inkscape:vp_z="744.09448 : 526.18109 : 1"
       inkscape:vp_y="0 : 1000 : 0"
       inkscape:vp_x="0 : 526.18109 : 1"
       sodipodi:type="inkscape:persp3d" />
  </defs>
  <sodipodi:namedview
     inkscape:window-height="720"
     inkscape:window-width="1280"
     inkscape:pageshadow="2"
     inkscape:pageopacity="0.0"
     guidetolerance="10.0"
     gridtolerance="10.0"
     objecttolerance="10.0"
     borderopacity="1.0"
     bordercolor="#666666"
     pagecolor="#ffffff"
     id="base"
     inkscape:zoom="0.62708949"
     inkscape:cx="360.46823"
     inkscape:cy="386.07528"
     inkscape:window-x="-8"
     inkscape:window-y="-8"
     inkscape:current-layer="layer2"
     showgrid="true"
     showguides="true">
    <inkscape:grid
       type="xygrid"
       id="grid5151" />
  </sodipodi:namedview>
  <g
     inkscape:groupmode="layer"
     id="layer1"
     inkscape:label="Fond écu"
     style="display:inline"
     sodipodi:insensitive="true">
    <path
       id="path1899"
       d="M 1.5,1.49998 L 1.5,460.3679 C 1.5,626.6785 135.81456,761.5 301.49999,761.5 C 467.18543,761.5 601.5,626.6785 601.5,460.3679 L 601.5,1.49998 L 1.5,1.49998 z"
       style="fill:#e20909;fill-opacity:1" />
  </g>
  <g
     inkscape:groupmode="layer"
     id="layer2"
     inkscape:label="Meubles"
     style="display:inline"
     sodipodi:insensitive="true">
    <path
       style="opacity:1;fill:#ffffff;fill-opacity:1;fill-rule:evenodd;stroke:#000000;stroke-width:3.97835994;stroke-miterlimit:4;stroke-dasharray:none;stroke-opacity:1"
       d="M 2,2 L 2,197.125 C 57.882229,267.84601 120.6689,251.3418 137.21875,324.40625 C 150.24988,381.9362 241.41552,347.52341 269.375,432.21875 C 298.85978,521.53464 358.70013,471.39294 418.53125,561.4375 C 443.21164,598.58094 438.46727,630.02413 517.5625,635.28125 C 517.61918,635.21441 540.29054,637.10538 544.1875,637.375 C 580.22116,587.68543 601.5,526.53816 601.5,460.375 L 601.5,446.46875 C 601.06447,445.17858 600.57546,444.01908 600,443 C 560.11259,443 576.5747,378.33974 498.28125,353.25 C 367.26342,311.26436 458.41225,253.32018 338.75,214.28125 C 247.92623,184.65067 304.66746,168.355 239.03125,102.71875 C 185.31666,49.004203 129.32685,93.502289 97.5,2 L 2,2 z"
       id="path5891" />
    <path
       sodipodi:type="star"
       style="fill:#ffffff;fill-opacity:1;fill-rule:evenodd;stroke:#000000;stroke-width:0.60898197;stroke-miterlimit:4;stroke-dasharray:none;stroke-opacity:1"
       id="path5889"
       sodipodi:sides="6"
       sodipodi:cx="735"
       sodipodi:cy="603"
       sodipodi:r1="27.730848"
       sodipodi:r2="14.754807"
       sodipodi:arg1="0.44751998"
       sodipodi:arg2="0.97111875"
       inkscape:flatsided="false"
       inkscape:rounded="0"
       inkscape:randomized="0"
       d="M 760,615 L 743.32726,615.18035 L 737.10769,630.65063 L 728.61514,616.3018 L 712.1077,618.65063 L 720.28787,604.12145 L 710,591 L 726.67274,590.81965 L 732.89231,575.34937 L 741.38486,589.6982 L 757.8923,587.34937 L 749.71213,601.87855 L 760,615 z"
       transform="matrix(4.1037441,0.2738888,-0.2738888,4.1037441,-2393.1037,-2536.992)" />
    <g
       id="g6064"
       transform="matrix(3.9887415,0,0,3.9887415,-2433.4327,-2282.5419)">
      <path
         sodipodi:nodetypes="ccc"
         id="path6054"
         d="M 741,702 C 751,685 739.38928,667.82773 707,672 C 706,697 721,714 741,702 z"
         style="opacity:1;fill:#5ab532;fill-opacity:1;fill-rule:evenodd;stroke:#000000;stroke-width:1;stroke-miterlimit:4;stroke-dasharray:none;stroke-opacity:1" />
      <path
         sodipodi:nodetypes="ccc"
         id="path6056"
         d="M 715,700 L 737,699 L 737,677"
         style="opacity:1;fill:none;fill-opacity:1;fill-rule:evenodd;stroke:#000000;stroke-width:1;stroke-miterlimit:4;stroke-dasharray:none;stroke-opacity:1" />
      <path
         sodipodi:nodetypes="ccc"
         id="path6058"
         d="M 711,693 L 729.50726,692 L 729.50726,673"
         style="opacity:1;fill:none;fill-opacity:1;fill-rule:evenodd;stroke:#000000;stroke-width:1;stroke-miterlimit:4;stroke-dasharray:none;stroke-opacity:1" />
      <path
         sodipodi:nodetypes="ccc"
         id="path6060"
         d="M 708,686 L 721.53032,685 L 721.4842,671.76943"
         style="opacity:1;fill:none;fill-opacity:1;fill-rule:evenodd;stroke:#000000;stroke-width:1;stroke-miterlimit:4;stroke-dasharray:none;stroke-opacity:1" />
      <path
         sodipodi:nodetypes="ccc"
         id="path6062"
         d="M 707,679 L 714,678 L 714,671.60803"
         style="opacity:1;fill:none;fill-opacity:1;fill-rule:evenodd;stroke:#000000;stroke-width:1;stroke-miterlimit:4;stroke-dasharray:none;stroke-opacity:1" />
      <path
         sodipodi:nodetypes="cccccc"
         id="path6052"
         d="M 749,704 C 740.79454,700.72128 732.98742,693.45913 725,688 L 707,672 L 725,688 C 731.03441,695.31422 738.98303,701.56498 743,710 L 749,704 z"
         style="opacity:1;fill:#5ab532;fill-opacity:1;fill-rule:evenodd;stroke:#000000;stroke-width:1;stroke-miterlimit:4;stroke-dasharray:none;stroke-opacity:1" />
    </g>
    <g
       id="g6072"
       transform="matrix(3.9887415,0,0,3.9887415,-2600.9598,-2434.1141)">
      <path
         style="opacity:1;fill:#5ab532;fill-opacity:1;fill-rule:evenodd;stroke:#000000;stroke-width:1;stroke-miterlimit:4;stroke-dasharray:none;stroke-opacity:1"
         d="M 741,702 C 751,685 739.38928,667.82773 707,672 C 706,697 721,714 741,702 z"
         id="path6074"
         sodipodi:nodetypes="ccc" />
      <path
         style="opacity:1;fill:none;fill-opacity:1;fill-rule:evenodd;stroke:#000000;stroke-width:1;stroke-miterlimit:4;stroke-dasharray:none;stroke-opacity:1"
         d="M 715,700 L 737,699 L 737,677"
         id="path6076"
         sodipodi:nodetypes="ccc" />
      <path
         style="opacity:1;fill:none;fill-opacity:1;fill-rule:evenodd;stroke:#000000;stroke-width:1;stroke-miterlimit:4;stroke-dasharray:none;stroke-opacity:1"
         d="M 711,693 L 729.50726,692 L 729.50726,673"
         id="path6078"
         sodipodi:nodetypes="ccc" />
      <path
         style="opacity:1;fill:none;fill-opacity:1;fill-rule:evenodd;stroke:#000000;stroke-width:1;stroke-miterlimit:4;stroke-dasharray:none;stroke-opacity:1"
         d="M 708,686 L 721.53032,685 L 721.4842,671.76943"
         id="path6080"
         sodipodi:nodetypes="ccc" />
      <path
         style="opacity:1;fill:none;fill-opacity:1;fill-rule:evenodd;stroke:#000000;stroke-width:1;stroke-miterlimit:4;stroke-dasharray:none;stroke-opacity:1"
         d="M 707,679 L 714,678 L 714,671.60803"
         id="path6082"
         sodipodi:nodetypes="ccc" />
      <path
         style="opacity:1;fill:#5ab532;fill-opacity:1;fill-rule:evenodd;stroke:#000000;stroke-width:1;stroke-miterlimit:4;stroke-dasharray:none;stroke-opacity:1"
         d="M 749,704 C 740.79454,700.72128 732.98742,693.45913 725,688 L 707,672 L 725,688 C 731.03441,695.31422 738.98303,701.56498 743,710 L 749,704 z"
         id="path6084"
         sodipodi:nodetypes="cccccc" />
    </g>
    <g
       transform="matrix(3.9887415,0,0,3.9887415,-2784.442,-2593.6637)"
       id="g6086">
      <path
         sodipodi:nodetypes="ccc"
         id="path6088"
         d="M 741,702 C 751,685 739.38928,667.82773 707,672 C 706,697 721,714 741,702 z"
         style="opacity:1;fill:#5ab532;fill-opacity:1;fill-rule:evenodd;stroke:#000000;stroke-width:1;stroke-miterlimit:4;stroke-dasharray:none;stroke-opacity:1" />
      <path
         sodipodi:nodetypes="ccc"
         id="path6090"
         d="M 715,700 L 737,699 L 737,677"
         style="opacity:1;fill:none;fill-opacity:1;fill-rule:evenodd;stroke:#000000;stroke-width:1;stroke-miterlimit:4;stroke-dasharray:none;stroke-opacity:1" />
      <path
         sodipodi:nodetypes="ccc"
         id="path6092"
         d="M 711,693 L 729.50726,692 L 729.50726,673"
         style="opacity:1;fill:none;fill-opacity:1;fill-rule:evenodd;stroke:#000000;stroke-width:1;stroke-miterlimit:4;stroke-dasharray:none;stroke-opacity:1" />
      <path
         sodipodi:nodetypes="ccc"
         id="path6094"
         d="M 708,686 L 721.53032,685 L 721.4842,671.76943"
         style="opacity:1;fill:none;fill-opacity:1;fill-rule:evenodd;stroke:#000000;stroke-width:1;stroke-miterlimit:4;stroke-dasharray:none;stroke-opacity:1" />
      <path
         sodipodi:nodetypes="ccc"
         id="path6096"
         d="M 707,679 L 714,678 L 714,671.60803"
         style="opacity:1;fill:none;fill-opacity:1;fill-rule:evenodd;stroke:#000000;stroke-width:1;stroke-miterlimit:4;stroke-dasharray:none;stroke-opacity:1" />
      <path
         sodipodi:nodetypes="cccccc"
         id="path6098"
         d="M 749,704 C 740.79454,700.72128 732.98742,693.45913 725,688 L 707,672 L 725,688 C 731.03441,695.31422 738.98303,701.56498 743,710 L 749,704 z"
         style="opacity:1;fill:#5ab532;fill-opacity:1;fill-rule:evenodd;stroke:#000000;stroke-width:1;stroke-miterlimit:4;stroke-dasharray:none;stroke-opacity:1" />
    </g>
    <path
       transform="matrix(4.1037441,0.2738888,-0.2738888,4.1037441,-2672.1732,-2126.9144)"
       d="M 760,615 L 743.32726,615.18035 L 737.10769,630.65063 L 728.61514,616.3018 L 712.1077,618.65063 L 720.28787,604.12145 L 710,591 L 726.67274,590.81965 L 732.89231,575.34937 L 741.38486,589.6982 L 757.8923,587.34937 L 749.71213,601.87855 L 760,615 z"
       inkscape:randomized="0"
       inkscape:rounded="0"
       inkscape:flatsided="false"
       sodipodi:arg2="0.97111875"
       sodipodi:arg1="0.44751998"
       sodipodi:r2="14.754807"
       sodipodi:r1="27.730848"
       sodipodi:cy="603"
       sodipodi:cx="735"
       sodipodi:sides="6"
       id="path6609"
       style="fill:#ffffff;fill-opacity:1;fill-rule:evenodd;stroke:#000000;stroke-width:0.60898197;stroke-miterlimit:4;stroke-dasharray:none;stroke-opacity:1"
       sodipodi:type="star" />
  </g>
  <g
     inkscape:groupmode="layer"
     id="layer3"
     inkscape:label="Reflet final"
     style="display:inline"
     sodipodi:insensitive="true">
    <path
       style="fill:url(#radialGradient3236);fill-opacity:1"
       d="M 1.5,1.5 L 1.5,460.3679 C 1.5,626.67854 135.81454,761.5 301.49993,761.5 C 467.1854,761.5 601.5,626.67854 601.5,460.3679 L 601.5,1.5 L 1.5,1.5 z "
       id="path2346" />
  </g>
  <g
     inkscape:groupmode="layer"
     id="layer4"
     inkscape:label="Contour final"
     style="display:inline"
     sodipodi:insensitive="true">
    <path
       style="fill:none;fill-opacity:1;stroke:#000000;stroke-width:3;stroke-miterlimit:4;stroke-dasharray:none;stroke-opacity:1"
       d="M 1.5,1.5 L 1.5,460.36794 C 1.5,626.67854 135.81454,761.5 301.49993,761.5 C 467.1854,761.5 601.5,626.67854 601.5,460.36794 L 601.5,1.5 L 1.5,1.5 z"
       id="path3239" />
  </g>
</svg>

<svg xmlns="http://www.w3.org/2000/svg" xmlns:xlink="http://www.w3.org/1999/xlink" height="763" width="603" version="1.0"><defs><radialGradient xlink:href="#a" id="b" gradientUnits="userSpaceOnUse" gradientTransform="matrix(1.21503 0 0 1.26667 -839.192 -490.49)" cx="858.042" cy="579.933" fx="858.042" fy="579.933" r="300"/><linearGradient id="a"><stop style="stop-color:#fff;stop-opacity:.3137255" offset="0"/><stop offset=".19" style="stop-color:#fff;stop-opacity:.25098041"/><stop style="stop-color:#6b6b6b;stop-opacity:.1254902" offset=".6"/><stop style="stop-color:#000;stop-opacity:.1254902" offset="1"/></linearGradient></defs><g style="display:inline"><path d="M1.5 1.5v458.868c0 166.31 134.315 301.132 300 301.132s300-134.822 300-301.132V1.5H1.5z" style="fill:#e20909;fill-opacity:1"/></g><g style="display:inline"><path style="opacity:1;fill:#fff;fill-opacity:1;fill-rule:evenodd;stroke:#000;stroke-width:3.97835994;stroke-miterlimit:4;stroke-dasharray:none;stroke-opacity:1" d="M2 2v195.125c55.882 70.721 118.669 54.217 135.219 127.281 13.03 57.53 104.197 23.117 132.156 107.813 29.485 89.316 89.325 39.174 149.156 129.219 24.68 37.143 19.936 68.586 99.031 73.843.057-.067 22.729 1.824 26.625 2.094 36.034-49.69 57.313-110.837 57.313-177v-13.906c-.436-1.29-.925-2.45-1.5-3.469-39.887 0-23.425-64.66-101.719-89.75-131.018-41.986-39.869-99.93-159.531-138.969-90.824-29.63-34.083-45.926-99.719-111.562C185.317 49.004 129.327 93.502 97.5 2H2z"/><path style="fill:#fff;fill-opacity:1;fill-rule:evenodd;stroke:#000;stroke-width:.60898197;stroke-miterlimit:4;stroke-dasharray:none;stroke-opacity:1" d="m760 615-16.673.18-6.22 15.47-8.492-14.348-16.507 2.349 8.18-14.53L710 591l16.673-.18 6.22-15.47 8.492 14.348 16.507-2.349-8.18 14.53L760 615z" transform="scale(4.11287) rotate(3.818 8961.645 -9036.224)"/><path d="M741 702c10-17-1.61-34.172-34-30-1 25 14 42 34 30z" style="opacity:1;fill:#5ab532;fill-opacity:1;fill-rule:evenodd;stroke:#000;stroke-width:1;stroke-miterlimit:4;stroke-dasharray:none;stroke-opacity:1" transform="translate(-2433.433 -2282.542) scale(3.98874)"/><path d="m715 700 22-1v-22" style="opacity:1;fill:none;fill-opacity:1;fill-rule:evenodd;stroke:#000;stroke-width:1;stroke-miterlimit:4;stroke-dasharray:none;stroke-opacity:1" transform="translate(-2433.433 -2282.542) scale(3.98874)"/><path d="m711 693 18.507-1v-19" style="opacity:1;fill:none;fill-opacity:1;fill-rule:evenodd;stroke:#000;stroke-width:1;stroke-miterlimit:4;stroke-dasharray:none;stroke-opacity:1" transform="translate(-2433.433 -2282.542) scale(3.98874)"/><path d="m708 686 13.53-1-.046-13.23M707 679l7-1v-6.392" style="opacity:1;fill:none;fill-opacity:1;fill-rule:evenodd;stroke:#000;stroke-width:1;stroke-miterlimit:4;stroke-dasharray:none;stroke-opacity:1" transform="translate(-2433.433 -2282.542) scale(3.98874)"/><path d="M749 704c-8.205-3.279-16.013-10.54-24-16l-18-16 18 16c6.034 7.314 13.983 13.565 18 22l6-6z" style="opacity:1;fill:#5ab532;fill-opacity:1;fill-rule:evenodd;stroke:#000;stroke-width:1;stroke-miterlimit:4;stroke-dasharray:none;stroke-opacity:1" transform="translate(-2433.433 -2282.542) scale(3.98874)"/><g><path style="opacity:1;fill:#5ab532;fill-opacity:1;fill-rule:evenodd;stroke:#000;stroke-width:1;stroke-miterlimit:4;stroke-dasharray:none;stroke-opacity:1" d="M741 702c10-17-1.61-34.172-34-30-1 25 14 42 34 30z" transform="translate(-2600.96 -2434.114) scale(3.98874)"/><path style="opacity:1;fill:none;fill-opacity:1;fill-rule:evenodd;stroke:#000;stroke-width:1;stroke-miterlimit:4;stroke-dasharray:none;stroke-opacity:1" d="m715 700 22-1v-22" transform="translate(-2600.96 -2434.114) scale(3.98874)"/><path style="opacity:1;fill:none;fill-opacity:1;fill-rule:evenodd;stroke:#000;stroke-width:1;stroke-miterlimit:4;stroke-dasharray:none;stroke-opacity:1" d="m711 693 18.507-1v-19" transform="translate(-2600.96 -2434.114) scale(3.98874)"/><path style="opacity:1;fill:none;fill-opacity:1;fill-rule:evenodd;stroke:#000;stroke-width:1;stroke-miterlimit:4;stroke-dasharray:none;stroke-opacity:1" d="m708 686 13.53-1-.046-13.23M707 679l7-1v-6.392" transform="translate(-2600.96 -2434.114) scale(3.98874)"/><path style="opacity:1;fill:#5ab532;fill-opacity:1;fill-rule:evenodd;stroke:#000;stroke-width:1;stroke-miterlimit:4;stroke-dasharray:none;stroke-opacity:1" d="M749 704c-8.205-3.279-16.013-10.54-24-16l-18-16 18 16c6.034 7.314 13.983 13.565 18 22l6-6z" transform="translate(-2600.96 -2434.114) scale(3.98874)"/></g><g><path d="M741 702c10-17-1.61-34.172-34-30-1 25 14 42 34 30z" style="opacity:1;fill:#5ab532;fill-opacity:1;fill-rule:evenodd;stroke:#000;stroke-width:1;stroke-miterlimit:4;stroke-dasharray:none;stroke-opacity:1" transform="translate(-2784.442 -2593.664) scale(3.98874)"/><path d="m715 700 22-1v-22" style="opacity:1;fill:none;fill-opacity:1;fill-rule:evenodd;stroke:#000;stroke-width:1;stroke-miterlimit:4;stroke-dasharray:none;stroke-opacity:1" transform="translate(-2784.442 -2593.664) scale(3.98874)"/><path d="m711 693 18.507-1v-19" style="opacity:1;fill:none;fill-opacity:1;fill-rule:evenodd;stroke:#000;stroke-width:1;stroke-miterlimit:4;stroke-dasharray:none;stroke-opacity:1" transform="translate(-2784.442 -2593.664) scale(3.98874)"/><path d="m708 686 13.53-1-.046-13.23M707 679l7-1v-6.392" style="opacity:1;fill:none;fill-opacity:1;fill-rule:evenodd;stroke:#000;stroke-width:1;stroke-miterlimit:4;stroke-dasharray:none;stroke-opacity:1" transform="translate(-2784.442 -2593.664) scale(3.98874)"/><path d="M749 704c-8.205-3.279-16.013-10.54-24-16l-18-16 18 16c6.034 7.314 13.983 13.565 18 22l6-6z" style="opacity:1;fill:#5ab532;fill-opacity:1;fill-rule:evenodd;stroke:#000;stroke-width:1;stroke-miterlimit:4;stroke-dasharray:none;stroke-opacity:1" transform="translate(-2784.442 -2593.664) scale(3.98874)"/></g><path transform="scale(4.11287) rotate(3.818 7432.14 -10004.156)" d="m760 615-16.673.18-6.22 15.47-8.492-14.348-16.507 2.349 8.18-14.53L710 591l16.673-.18 6.22-15.47 8.492 14.348 16.507-2.349-8.18 14.53L760 615z" style="fill:#fff;fill-opacity:1;fill-rule:evenodd;stroke:#000;stroke-width:.60898197;stroke-miterlimit:4;stroke-dasharray:none;stroke-opacity:1"/></g><g style="display:inline"><path style="fill:url(#b);fill-opacity:1" d="M1.5 1.5v458.868c0 166.31 134.315 301.132 300 301.132s300-134.821 300-301.132V1.5H1.5z"/></g><g style="display:inline"><path style="fill:none;fill-opacity:1;stroke:#000;stroke-width:3;stroke-miterlimit:4;stroke-dasharray:none;stroke-opacity:1" d="M1.5 1.5v458.868c0 166.31 134.315 301.132 300 301.132s300-134.821 300-301.132V1.5H1.5z"/></g></svg>
